images/email.svg

<svg width="40" height="41" viewBox="0 0 40 41" fill="none" xmlns="http://www.w3.org/2000/svg">
<rect y="0.0952148" width="40" height="40" rx="20" fill="white" fill-opacity="0.1"/>
<path d="M28 12.0952H12C10.8954 12.0952 10 12.9906 10 14.0952V26.0952C10 27.1998 10.8954 28.0952 12 28.0952H28C29.1046 28.0952 30 27.1998 30 26.0952V14.0952C30 12.9906 29.1046 12.0952 28 12.0952Z" stroke="white" stroke-width="2" stroke-linecap="round" stroke-linejoin="round"/>
<path d="M30 15.0952L21.03 20.7952C20.7213 20.9886 20.3643 21.0912 20 21.0912C19.6357 21.0912 19.2787 20.9886 18.97 20.7952L10 15.0952" stroke="white" stroke-width="2" stroke-linecap="round" stroke-linejoin="round"/>
</svg>

<?xml version="1.0" encoding="utf-8"?>
<!-- Generator: Adobe Illustrator 25.0.0, SVG Export Plug-In . SVG Version: 6.00 Build 0)  -->
<svg version="1.1" id="Layer_1" xmlns="http://www.w3.org/2000/svg" xmlns:xlink="http://www.w3.org/1999/xlink" x="0px" y="0px"
	 viewBox="0 0 40 41" style="enable-background:new 0 0 40 41;" xml:space="preserve">
<style type="text/css">
	.st0{fill:none;}
	.st1{fill:none;stroke:#FFFFFF;stroke-width:2;stroke-linecap:round;stroke-linejoin:round;}
</style>
<path class="st0" d="M20,0.1L20,0.1c11,0,20,9,20,20l0,0c0,11-9,20-20,20l0,0c-11,0-20-9-20-20l0,0C0,9,9,0.1,20,0.1z"/>
<path class="st1" d="M28,12.1H12c-1.1,0-2,0.9-2,2v12c0,1.1,0.9,2,2,2h16c1.1,0,2-0.9,2-2v-12C30,13,29.1,12.1,28,12.1z"/>
<path class="st1" d="M30,15.1l-9,5.7c-0.3,0.2-0.7,0.3-1,0.3s-0.7-0.1-1-0.3l-9-5.7"/>
</svg>
